X:26
T:Just Because
T:Version 2
R:singing square
M:4/4
L:1/4
Z:JR
K:G
DEF | "G"G2ED | G2ED | GG3- | GDEF | "G"G2FE | D2EG | "D"F4- | F3D |
"D"F2ED | F2ED | FF3- | F3F |"Am"EE2E | "D"F2E2 | "G"D4- | DDEF |
"G"G2ED | G2ED | GG3- | GDEF | "G"G2FG | A2GF | "C"E4- | E2EF |
"C"G2 FG | "C#dim"A2GA | "G"B2GF | "E7"E3D | "A7"E4 | "D7"F2B2 | "G"G4- | G|]
